X:1
T:Little Musgrave
M:4/4
L:1/8
K:C
z6G2|G3G G2G2|F2E2F2G2|cc G2G2F2|G6z2|G4G2GG|F2E2F2G2|c2G2F2E2|C6z2
w:It fell up-on a ho-ly day as ma-ny were in the year. Mus-grave to the church did go do see fine lad-ies fair
